!!!OTL: Langa More
!!!XEN: More Sun
!!!CNT: African -- sub-Saharan -- Xhosa
**kern
*k[]
*M4/4
*MM132
2b-
=1
4a
4r
8g
8g
8g
8g
=2
2cc
2b-
=3
4a
4r
8g
8g
8g
8g
=4
2cc
2b-
=5
4a
4r
8g
8g
8g
8g
=6
2cc
2b-
=7
4a
4r
8g
8g
8g
8g
=8
4cc
4cc
4cc
4cc
=9
4a
8r
8cc
8b-
8cc
8dd
8b-
=10
4cc
2cc
8a
8b-
=11
8a
8f
8r
8g
8g
8g
8a
8g
=12
4g
4cc
4cc
4cc
=13
4a
8r
8cc
8b-
8cc
8dd
8b-
=14
4cc
2cc
8a
8b-
=15
8a
8f
8r
8g
8g
8g
8a
8g
=16
2.g
8a
8b-
=17
8a
8f
4r
4g
8g
8g
=18
8a
8g
4r
4r
8g
8g
=19
8a
8f
8r
8g
8g
8g
8g
8g
=20
8a
8g
4r
4r
8g
8g
=21
8a
8f
4r
4g
8g
8g
=22
8a
8g
4r
4r
8g
8g
=23
8a
8f
8r
8g
8g
8g
8g
8g
=24
8a
8g
4G
[2g
=25
8g]
8f
8d
8B
2G
=26
4r
4G
[2g
=27
8g]
8f
8d
8B
2G
=28
4r
4G
[2g
=29
8g]
8f
8d
8B
2G
=30
4r
4G
[2g
=31
8g]
8f
8d
8B
2G
=32
4r
4cc
4cc
4cc
!! Da Capo al Segno al Fine.
=33
4a
8r
8cc
8b-
8cc
8dd
8b-
=34
4cc
2cc
8a
8b-
=35
8a
8f
8r
8g
8g
8g
8a
8g
=36
4g
4cc
4cc
4cc
=37
4a
8r
8cc
8b-
8cc
8dd
8b-
=38
4cc
2cc
8a
8b-
=39
8a
8f
8r
8g
8g
8g
8a
8g
=40
[1cc
=41
4cc]
4r
==
*-
!!!OPR: Miriam Makeba, "The World of African Song"
!!!PPP: Chicago
!!!PPR: Quadrangle Press (12 East Delaware Place)
!!!PDT: 1971///
!!!PPG: 109
!!!ENC: David Huron
!!!EMD: 1998/9/29/ Paul von Hippel updated this file in the following ways:
!!!EMD:  (1) changed the representation of slurs from curly braces to parentheses 
!!!EMD:  (2) changed freeform comments into reference records and tandem interpretations
!!!EMD:  (3) changed final barline from triple (===) to double (==)
!!!EMD:  (4) added key signature from printed source
!!!EEV: Version 2.0
